!!!OTL: Die schöne B&auml;uerin (238a), S. 510f
!!!id: T0425
**kern
*clefG2
*k[f#c#]
*D:
{4d
=1
8d
16f#
16a
4.a
8a
8b
8dd
=2
8dd
8f#
4f#}
4r
=3
{4f#
=4
8e
16f#
16b
4.b
8a
8g
8c#
=5
4d}
2r
=6
{4d
=7
8d
16f#
16a
4.a
8a
8b
8dd
=8
8dd
8f#
4f#}
4r
=9
{4f#
=10
8e
16f#
16b
4.b
8a
8g
8c#
=11
4d}
2r
=12
{4a
=13
8b
8a
8g
8e
4.e
8cc#
=14
8cc#
8cc#
8dd
8a
4.a}
=15
{8a
=16
8b
8a
8g
8e
4.e
8cc#
=17
8a
8cc#
2dd}
8r
=18
{8d
=19
8d
16f#
16a
4.a
8a
8a
8dd
=20
2cc#}
4.r
=21
{8dd
=22
8cc#
8b
4a
8b
8a
8g
8c#
=23
4d}
2r
=24
{4a
=25
4b
4a
8g
8g
8g
8g
=26
4d}
2r
=27
{4dd
=28
4dd
4dd
8dd
8dd
8dd
8ee
=29
4ff#}
2r
=30
{4a
=31
4b
4a
8g
8g
8g
8g
=32
4d}
=33
{4dd
4a
4cc#
=34
4dd}
2r
=35
{4a
=36
4b
4a
8g
8g
8g
8g
=37
4d}
2r
=38
{4dd
=39
4dd
4dd
8dd
8dd
8dd
8ee
=40
4ff#}
2r
=41
{4a
=42
4b
4a
8g
8g
8g
8g
=43
4d}
=44
{4dd
4a
4cc#
=45
4dd}
2r
==
*-
!!!minrhy: 16
!!!meters: 4/4 ]  ZZ[16
!!!cut: Die schöne B&auml;uerin (238a), S. 510f
!!!reg: Luxemburg
!!!trd: Singendes Volk, Esch-Alzette, 1937 posth.
!!!rhy1: X__  X_XXX__.X_X_X_  X_X_X__0__
!!!rhy2: X__  X_XXX__.X_X_X_  X__0___
!!!key: T0425  16  D 4/4 ]  ZZ[16
!!!mod: HEPTATONIK IONISCH]  AMBITUS[11
!!!kad: 31315+1711+31+11+31+1
!!!akz: 15+1_261_15+1_261_6275_625+1_157_761_641_+1+1+3_641_5+1_641_+1+1+3_641_5+1_
!!!fot: 'a__b__a__b__c__d__aw_e__f__g__f__h__f__g__f__h__
!!!for: 'a__aw_a__aw_b__bw_aw_c__d__d__dv_e__d__d__dv_e__
!!!fok: '^a_^d_^a_^d_S__Va_/__\__\__/__\__V__\__/__\__V__
!! PHRAS[AUFTAKTIG]
!!!fkt: Berufslied, Liebeslied
!!!bem: StraPen, hhh Johann Schmit, Liederheft, 1855-65
!! THILL; Mathias
!! PR[22] 2K[4] 2G[6] 3K[8] 3G[6] 4A[3] 4Ü[0] 5A[4] 6K[0] 6G[1]
!! 7K[1] 7G[0] 8A[0] MEHR[0] SI[33] ABS[78] SR[10] SP[23]
!! ST[0] 2k[6] 2g[27] 3k[5] 3g[1] 4d[0] 4ü[0] 5d[1] 6k[4] 6g[0]
!! 7k[0] 7g[0] 8d[0] mehr[0] si[45] dm[-12] sr[33] sp[12]
!! 1F[7] 2F[56] 3F[24] 4F[5] LF[0] 2P[0] 3P[8] 4P[0] TRI[0] DF[5] AB[86]
!! TF[0] U3K[0] U3[0] U4[0] U4Ü[0] U5[0] U6K[0] U6[3] U7K[0] U7[0]
!! N1[8] N2K[0] N2[8] N3K[0] N3[18] N4[10] N4Ü[0] N5[27] N6K[0] N6[10]
!!!n7k: 0] N7[4] O1[10] O2K[0] O2[3] O3K[0] O3[1] HÖ[0
!!!RNB: symbol: &auml;      = a umlaut  (UTF-8: Å„)
